X:1
T:A Harris Dance
M:C
L:1/8
Q:80
C:Trad. arr. Bruce Gandy
S:Reel
K:HP
|: {Gdc}d2af{ag}a2{AGAG}A2 | \
{ag}a2fa{g}af{g}fe | \
{gdG}d2af{ag}a2{AGAG}A2 |
af{g}df{g}B{d}B{e}BA :: \
{g}f2{g}ec{gBd}B2{g}A{d}B | \
{g}f2{g}ec{g}B{d}B{e}BA |
{g}f2{g}ec{gBd}B2{g}A{d}B | \
{g}dedB{g}A{d}A{e}A{e}B :|
